X: 36473
T: See The Bodachan
R: jig
M: 6/8
K: Amixolydian
|:a|ece AAA|ecf ecA|cBA AAA|Bce f2a|
[1 ece AAA|ecf ecA|a2e fec|Bce f2:|
[2 e2A ceA|cfA ceA|a2e fec|Bce f2||
|:e|efg aaa|fea fec|efg a2e|Bce f2e|
[1 efg aaa|fef aec|a2e fec|Bce f2:|
[2 aaa f2e|cea f2e|afe fec|Bce fea||

